apps/site/public/icons/companies/netlify-logo.svg

<svg width="48" height="48" viewBox="0 0 48 48" fill="none" xmlns="http://www.w3.org/2000/svg">
<g clip-path="url(#clip0_5141_27817)">
<mask id="mask0_5141_27817" style="mask-type:luminance" maskUnits="userSpaceOnUse" x="1" y="3" width="47" height="42">
<path d="M47.6001 3H1V44.0063H47.6001V3Z" fill="white"/>
</mask>
<g mask="url(#mask0_5141_27817)">
<path d="M13.5944 37.2404H13.1544L10.958 35.0441V34.6041L14.3157 31.2464H16.6419L16.9521 31.5565V33.8828L13.5944 37.2404Z" fill="#05BDBA"/>
<path d="M10.958 12.3986V11.9586L13.1544 9.76224H13.5944L16.9521 13.1199V15.4461L16.6419 15.7563H14.3157L10.958 12.3986Z" fill="#05BDBA"/>
<path d="M30.2924 30.1608H27.0971L26.8302 29.8939V22.414C26.8302 21.0832 26.3072 20.0517 24.7023 20.0156C23.8764 19.994 22.9315 20.0156 21.9217 20.0553L21.7702 20.2104V29.8903L21.5033 30.1572H18.3079L18.041 29.8903V17.1124L18.3079 16.8455H25.4994C28.2944 16.8455 30.5593 19.1104 30.5593 21.9054V29.8939L30.2924 30.1608Z" fill="#014847"/>
<path d="M14.0485 25.3714H1.26688L1 25.1045V21.9019L1.26688 21.635H14.0485L14.3154 21.9019V25.1045L14.0485 25.3714Z" fill="#05BDBA"/>
<path d="M47.3366 25.3714H34.555L34.2881 25.1045V21.9019L34.555 21.635H47.3366L47.6035 21.9019V25.1045L47.3366 25.3714Z" fill="#05BDBA"/>
<path d="M22.459 12.8531V3.26685L22.7259 2.99997H25.9285L26.1954 3.26685V12.8531L25.9285 13.1199H22.7259L22.459 12.8531Z" fill="#05BDBA"/>
<path d="M22.459 43.7394V34.1533L22.7259 33.8864H25.9285L26.1954 34.1533V43.7394L25.9285 44.0063H22.7259L22.459 43.7394Z" fill="#05BDBA"/>
</g>
</g>
<defs>
<clipPath id="clip0_5141_27817">
<rect width="46.6001" height="41.1391" fill="white" transform="translate(1 3)"/>
</clipPath>
</defs>
</svg>

<svg xmlns="http://www.w3.org/2000/svg" width="48" height="48" fill="none" viewBox="0 0 48 48"><g clip-path="url(#a)"><mask id="b" width="47" height="42" x="1" y="3" maskUnits="userSpaceOnUse" style="mask-type:luminance"><path fill="#fff" d="M47.6 3H1v41.006h46.6z"/></mask><g mask="url(#b)"><path fill="#05bdba" d="M13.594 37.24h-.44l-2.196-2.196v-.44l3.358-3.358h2.326l.31.31v2.327zm-2.636-24.841v-.44l2.196-2.197h.44l3.358 3.358v2.326l-.31.31h-2.326z"/><path fill="#014847" d="M30.292 30.16h-3.195l-.267-.266v-7.48c0-1.33-.523-2.362-2.128-2.398-.826-.022-1.77 0-2.78.04l-.152.154v9.68l-.267.267h-3.195l-.267-.267V17.112l.267-.266h7.191a5.06 5.06 0 0 1 5.06 5.06v7.988z"/><path fill="#05bdba" d="M14.049 25.371H1.267L1 25.105v-3.203l.267-.267h12.782l.266.267v3.203zm33.288 0H34.555l-.267-.266v-3.203l.267-.267h12.782l.266.267v3.203zM22.459 12.853V3.267L22.726 3h3.203l.266.267v9.586l-.267.267h-3.202zm0 30.887v-9.587l.267-.267h3.203l.266.267v9.586l-.267.267h-3.202z"/></g></g><defs><clipPath id="a"><path fill="#fff" d="M1 3h46.6v41.139H1z"/></clipPath></defs></svg>
